X:2045
T:Polsk 
T:(Totakt-pols, nr. JH-20)
S:efter Jens Holm, notbok på Dansk Folkmindessamling
O:Solkjær, Grarup, Haderslev amt (Danmark)
R:Totakt-pols
Z:Åke Persson 2011-06-26
M:2/4
L:1/8
Q:1/4=100
K:G
|: de/f/ (ge) | dcBG | ccec | c2 B2 | de/f/ (ge) | dcBG | cc AF | G2 G2 :|
K:D
|: fd af | e/d/c/B/ Ag | fagf | f2 e2 | faaf |bagf | (f/e/)(g/e/) (d/c/)(B/d/) | d2 d2 :|
(:musicend:)

I notboken saknar andrareprisen förtecken för skifte till D.
(:title Flickorna dansa på tå:)

(:music:)
